X: 913
T: Gözümden Gitmiyor Bir Dem Hayâlin
C: Hacı Ârif Bey
O: Turkey
F: http://compmusic.upf.edu/node/140
N: suzinak--sarki--curcuna--gozumden_gitmiyor--haci_arif_bey
N: makam= suzinak
N: form= sarki
N: usul= curcuna = 10/8
M: 10/8
L: 1/16
K: C _1/4B _7/8e ^f 
Q: 1/4=186
%%MIDI tuningsystem comma53
G8-G2B2 c2d2 e2c2  | d4 g2f2 e2d2 c2B2 _7/8A2G2  | \
w:  ARANAĞME  |   | 
G8-G2B2 c2d2 e2c2  | 
w:   | 
d4 e2d2 c2B2 c2d4z2  | d4 e2f4g2 f2e2 d2c2  | \
w:   |   | 
g8-g2g2 f2e2 d2c2  | 
w:   | 
B2c2 d2e2 f2d2 c2B4_7/8A2  | G4 e2d2 c2B2 _7/8A2G4z2  | \
w:   |   | 
G8-G2B2 c2d2 e2c2  | 
w:  ARANAĞME  | 
d4 g2f2 e2d2 c2B2 _7/8A2G2  | G8-G2B2 c2d2 e2c2  | \
w:   |   | 
d4 e2d2 c2B2 c2d4z2  | 
w:   | 
d4 e2f4g2 f2e2 d2c2  | g8-g2g2 f2e2 d2c2  | \
w:   |   | 
B2c2 d2e2 f2d2 c2B4_7/8A2  | 
w:   | 
G4 e2d2 c2B2 _7/8A2G4z2  | z4 c2d4e4d4c2  | \
w:   |  Gö züm den   | 
B4 _7/8A2A2 G2G2 F2G4z2  | 
w:  git *  mi *  yor   | 
g3f e2d2 c2B2 _7/8A2G4z2  | c4 d2e2 c2d8z2  | \
w:  bir  *  *  *  *  dem   |  ha yâ *  *  lin    | 
d4 e2d2 c2B2 _7/8A2G4z2  | 
w:  SAZ  | 
z4 c2d4e4d4c2  | B4 _7/8A2A2 G2G2 F2G4z2  | \
w:  Gö züm den   |  git *  mi *  yor   | 
g3f e2d2 c2B2 _7/8A2G4z2  | 
w:  bir  *  *  *  *  dem   | 
c4 d2e2 c2d8z2  | d4 e2d2 c2B2 c2d4z2  | \
w:  ha yâ *  *  lin    |  SAZ  | 
z4 c2d4e4d4c2  | c4 B2e2 d2d2 c2d4z2  | 
w:  Me lek sin   |  ey  *  gü *  zel   | 
c6d4e4d2 c2B2  | c4 e2d2 c2d2 B2c4z2  | \
w:  yok tur  mi sâ  |  lin   SAZ  | 
z4 c2d4e4d4c2  | c4 B2e2 d2d2 c2d4z2  | 
w:  Me lek sin   |  ey  *  gü *  zel   | 
B6c4_7/8d4c4B2  | B2c2 B2_7/8A2 G2G2 F2G4z2  | \
w:  yok *  tur   |  mi *  sâ *  *  lin    | 
z4 _b2a2 g2a2 =f2g4z2  | 
w:  SAZ  | 
z4 =f2g4g4a4g2  | _b4 a2a2 g2g2 =f2g4z2  | \
w:  Be ni  ağ  |  lat *  tı *  rır   | 
c4 d2_1/4e4=f2 g2a4g2  | 
w:  derd_ *  *  i   | 
c'4 _b2a2 g2g=f gaf4_1/4e2  | d4 d2e4g4f4e2  | \
w:  vi sâ *  *  lin    |  *  Be ni  ağ  | 
f2e4e2 d2d2 c2d4z2  | 
w:  lat *  tı *  rır   | 
g2f2 e2d2 c2B2 _7/8A2G4z2  | c4 d2e2 c2d8z2  | \
w:  derd_ *  *  *  *  i   |  vi sâ *  *  lin    | 
z4 e2d2 c2B2 c2d4z2  | 
w:  SAZ  | 
z4 c2d4e4d4c2  | c4 B2e2 d2d2 c2d4z2  | \
w:  Me lek sin   |  ey  *  gü *  zel   | 
c6d4e4d2 c2B2  | c4 e2d2 c2d2 B2c4z2  | 
w:  yok tur  mi sâ  |  lin   SAZ  | 
z4 c2d4e4d4c2  | c4 B2e2 d2d2 c2d4z2  | \
w:  Me lek sin   |  ey  *  gü *  zel   | 
B6c4_7/8d4c4B2  | B2c2 B2_7/8A2 G2G2 F2G4z2  | 
w:  yok *  tur   |  mi *  sâ *  *  lin    | 
|


